assets/svg/app/burn.svg

<svg width="38" height="49" viewBox="0 0 38 49" fill="none" xmlns="http://www.w3.org/2000/svg">
<g filter="url(#filter0_d-909495)">
<path d="M19.4327 8.69434C19.4327 8.69434 9.37402 22.106 9.37402 29.9412C9.37402 35.4823 13.8916 39.9999 19.4327 39.9999C24.9739 39.9999 29.4915 35.4823 29.4915 29.9412C29.4915 22.0707 19.4327 8.69434 19.4327 8.69434ZM19.4327 38.0234C16.9269 38.0234 14.9151 36.0117 14.9151 33.5058C14.9151 30.0118 19.4327 23.9765 19.4327 23.9765C19.4327 23.9765 23.9503 29.9765 23.9503 33.5058C23.9151 36.0117 21.9033 38.0234 19.4327 38.0234Z" fill="#3B2627"/>
<path d="M19.4327 23.9765L19.8793 23.6403L19.4314 23.0454L18.9852 23.6415L19.4327 23.9765ZM19.4327 23.9765C19.8793 23.6403 19.8794 23.6404 19.8795 23.6405L19.8797 23.6408L19.8805 23.6419L19.8834 23.6456L19.8938 23.6596L19.9332 23.7127C19.9674 23.759 20.017 23.8267 20.08 23.9138C20.2059 24.088 20.385 24.34 20.5997 24.653C21.0286 25.2786 21.6012 26.1508 22.1747 27.1365C22.7473 28.1207 23.3263 29.2273 23.7635 30.3203C24.1971 31.4044 24.5094 32.5188 24.5094 33.5058V33.5137H24.5093C24.4698 36.3178 22.2163 38.5825 19.4327 38.5825C16.6181 38.5825 14.3561 36.3204 14.3561 33.5058C14.3561 32.527 14.6687 31.4167 15.1021 30.3349C15.5392 29.2439 16.118 28.1364 16.6905 27.1503C17.2638 26.1626 17.8363 25.2871 18.2652 24.6589C18.4798 24.3446 18.6589 24.0915 18.7847 23.9164C18.8476 23.8288 18.8973 23.7608 18.9314 23.7143L18.9708 23.6609L18.9812 23.6469L18.984 23.6431L18.9848 23.6421L18.9851 23.6417C18.9851 23.6416 18.9852 23.6415 19.4327 23.9765ZM19.4333 9.64163C19.7048 10.0183 20.0868 10.5569 20.5432 11.2232C21.4808 12.5923 22.7302 14.4983 23.9787 16.6472C25.2282 18.7975 26.4713 21.1817 27.4006 23.5084C28.3336 25.8439 28.9324 28.0781 28.9324 29.9412C28.9324 35.1736 24.6651 39.4409 19.4327 39.4409C14.2004 39.4409 9.93305 35.1736 9.93305 29.9412C9.93305 28.0872 10.5318 25.8576 11.4648 23.5234C12.3942 21.1982 13.6374 18.8128 14.8869 16.6602C16.1355 14.5091 17.385 12.5997 18.3226 11.2278C18.7794 10.5594 19.1617 10.0193 19.4333 9.64163Z" stroke="#FC8738" stroke-width="1.11806"/>
</g>
<defs>
<filter id="filter0_d-909495" x="0.988606" y="0.308919" width="36.8883" height="48.0764" filterUnits="userSpaceOnUse" color-interpolation-filters="sRGB">
<feFlood flood-opacity="0" result="BackgroundImageFix"/>
<feColorMatrix in="SourceAlpha" type="matrix" values="0 0 0 0 0 0 0 0 0 0 0 0 0 0 0 0 0 0 127 0"/>
<feOffset/>
<feGaussianBlur stdDeviation="4.19271"/>
<feColorMatrix type="matrix" values="0 0 0 0 0.988235 0 0 0 0 0.529412 0 0 0 0 0.219608 0 0 0 0.6 0"/>
<feBlend mode="normal" in2="BackgroundImageFix" result="effect1_dropShadow"/>
<feBlend mode="normal" in="SourceGraphic" in2="effect1_dropShadow" result="shape"/>
</filter>
</defs>
</svg>

<svg viewBox="0 0 38 49" fill="none" xmlns="http://www.w3.org/2000/svg">
    <g filter="url(#filter0_d-909495)">
        <path d="M19.433 8.694S9.374 22.106 9.374 29.941C9.374 35.482 13.892 40 19.433 40c5.54 0 10.058-4.518 10.058-10.059 0-7.87-10.058-21.247-10.058-21.247zm0 29.33a4.504 4.504 0 01-4.518-4.518c0-3.494 4.518-9.53 4.518-9.53s4.517 6 4.517 9.53c-.035 2.506-2.047 4.517-4.517 4.517z" fill="#3B2627"/>
        <path d="M19.433 23.977l.446-.337-.448-.595-.446.596.448.336zm0 0l.447-.337h0v.002l.003.004.01.014.04.053.147.2a40.378 40.378 0 012.095 3.223c.572.985 1.151 2.091 1.588 3.184.434 1.084.746 2.199.746 3.186v.008h0c-.04 2.804-2.293 5.069-5.076 5.069a5.063 5.063 0 01-5.077-5.077c0-.979.313-2.09.746-3.171.437-1.091 1.016-2.199 1.588-3.185a40.983 40.983 0 012.241-3.436l.04-.053.01-.014.003-.004h0l.001-.001.448.335zm0-14.335a88.077 88.077 0 014.545 7.006c1.25 2.15 2.493 4.534 3.423 6.86.933 2.336 1.531 4.57 1.531 6.433 0 5.233-4.267 9.5-9.5 9.5-5.232 0-9.499-4.267-9.499-9.5 0-1.854.599-4.083 1.532-6.418.93-2.325 2.172-4.71 3.422-6.863a88.829 88.829 0 014.546-7.018z" stroke="#FC8738" stroke-width="1.118"/>
    </g>
    <defs>
        <filter id="filter0_d-909495" x=".989" y=".309" width="36.888" height="48.076" filterUnits="userSpaceOnUse" color-interpolation-filters="sRGB">
            <feFlood flood-opacity="0" result="BackgroundImageFix"/>
            <feColorMatrix in="SourceAlpha" values="0 0 0 0 0 0 0 0 0 0 0 0 0 0 0 0 0 0 127 0"/>
            <feOffset/>
            <feGaussianBlur stdDeviation="4.193"/>
            <feColorMatrix values="0 0 0 0 0.988235 0 0 0 0 0.529412 0 0 0 0 0.219608 0 0 0 0.6 0"/>
            <feBlend in2="BackgroundImageFix" result="effect1_dropShadow"/>
            <feBlend in="SourceGraphic" in2="effect1_dropShadow" result="shape"/>
        </filter>
    </defs>
</svg>
